X:396
T:Swaggering Bonny - Kirtlington
S:OY (AB)2 (AC)2
N:Tune as played for Grand Union Morris
N:www.grandunionmorris.co.uk
M:6/8
L:1/8
K:D
"A" A|FED FGA|BcB A2 A|dcd Bed|cBc d2:||
"B" d|ecA ecA|ecA A2 F|GAB BcB|GEF G3|FGA D3|GAB E3|FGA Bed|
cBc d2:||
"C" d|ecA ecA|ecA A2 F|GAB BcB|GEF G3|FG A3|D3 D3|GA B3|
E3 E3|FGA Bed|cBc d2:||
